!!!OTL: Yinyin kun
!!!ARE: Asia, China,ÿTaiwan
!! IV, 638(2)
!!!SCT: C1706
!!!YEM: Copyright 1995, estate of Helmut Schaffrath.
**kern
*ICvox
*Ivox
*M2/4
*k[f#]
*G:
{4g
4a
=1
2d
=2
4g
4a
=3
2d}
=4
{4d
8e
8g
=5
4d
4d
=6
2d}
=7
{4g
8a
8g
=8
2a
=9
4g
8a
8g
=10
2a}
=11
{4d
8e
8g
=12
4e
8e
8d
=13
2e}
=14
{4a
4d
=15
2a
=16
4a
8g
8a
=17
2a}
=18
{4a
4d
=19
2a
=20
4g
8a
8g
=21
2a}
==
!!!AGN: Xiaodiao
!!!AMT: simple duple
!!!AIN: vox
!!!EED: Helmut Schaffrath
!!!EEV: 1.0
*-
